X:1
T:Molly Malone
M:3/4
L:1/4
K:C
 G| c c c| c/2 e3/2 d/2c/2| d d d| d/2 f3/2 e/2d/2| g e c| g e c| A d c|\
 B2 G| c c c| c/2 e3/2 d/2c/2| d d d| d/2 f3/2 e/2d/2| g/2 e3/2 c|\
 g/2 e3/2 c| d3/2 c/2 d| c2 G| c3/2 c/2 c| c- ed/2-c/2| d3/2 d/2 d|\
 d- f e/2d/2| g/2 e3/2 c| g/2 e3/2 c| d3/2 c/2 d| c2||
